icons/riot.svg

<!--
  - The MIT License (MIT)
  -
  - Copyright (c) 2015-2024 Elior "Mallowigi" Boukhobza
  -
  - Permission is hereby granted, free of charge, to any person obtaining a copy
  - of this software and associated documentation files (the "Software"), to deal
  - in the Software without restriction, including without limitation the rights
  - to use, copy, modify, merge, publish, distribute, sublicense, and/or sell
  - copies of the Software, and to permit persons to whom the Software is
  - furnished to do so, subject to the following conditions:
  -
  - The above copyright notice and this permission notice shall be included in all
  - copies or substantial portions of the Software.
  -
  - THE SOFTWARE IS PROVIDED "AS IS", WITHOUT WARRANTY OF ANY KIND, EXPRESS OR
  - IMPLIED, INCLUDING BUT NOT LIMITED TO THE WARRANTIES OF MERCHANTABILITY,
  - FITNESS FOR A PARTICULAR PURPOSE AND NONINFRINGEMENT. IN NO EVENT SHALL THE
  - AUTHORS OR COPYRIGHT HOLDERS BE LIABLE FOR ANY CLAIM, DAMAGES OR OTHER
  - LIABILITY, WHETHER IN AN ACTION OF CONTRACT, TORT OR OTHERWISE, ARISING FROM,
  - OUT OF OR IN CONNECTION WITH THE SOFTWARE OR THE USE OR OTHER DEALINGS IN THE
  - SOFTWARE.
  -
  -->

<svg width="16px" height="16px" viewBox="0 0 24 24" xmlns="http://www.w3.org/2000/svg">
  <g fill="#ED1846" data-iconColor="Riot">
    <path
        d="M3 3.16527C3 3.07399 3.07369 3 3.16459 3H15.397C18.6401 3 21.2692 5.63998 21.2692 8.89655V10.0416C21.2692 10.1329 21.1955 10.2069 21.1046 10.2069H17.519C17.4281 10.2069 17.3544 10.1329 17.3544 10.0416V8.89655C17.3544 7.81103 16.478 6.93103 15.397 6.93103H7.07942C6.98852 6.93103 6.91483 7.00503 6.91483 7.0963V20.5244C6.91483 20.6157 6.84093 20.69 6.75011 20.6862C4.6644 20.5995 3 18.8743 3 16.7586V3.16527Z"/>
    <path
        d="M10.3418 10.8621C10.2509 10.8621 10.1768 10.9363 10.1806 11.0275C10.2669 13.1218 11.9851 14.7931 14.092 14.7931H16.7019C17.0623 14.7931 17.3544 15.0864 17.3544 15.4483V20.5244C17.3544 20.6157 17.4283 20.69 17.5191 20.6862C19.6048 20.5995 21.2692 18.8743 21.2692 16.7586V15.4483C21.2692 12.9154 19.2244 10.8621 16.7019 10.8621H10.3418Z"/>
  </g>
</svg>

<svg xmlns="http://www.w3.org/2000/svg" viewBox="0 0 24 24"><g fill="#ed1846" data-iconColor="Riot"><path d="M3 3.165C3 3.074 3.074 3 3.165 3h12.232c3.243 0 5.872 2.64 5.872 5.897v1.145a.165.165 0 0 1-.164.165h-3.586a.165.165 0 0 1-.165-.165V8.897a1.96 1.96 0 0 0-1.957-1.966H7.079a.165.165 0 0 0-.164.165v13.428a.16.16 0 0 1-.165.162A3.924 3.924 0 0 1 3 16.76z"/><path d="M10.342 10.862a.16.16 0 0 0-.161.165 3.92 3.92 0 0 0 3.911 3.766h2.61c.36 0 .652.293.652.655v5.076a.16.16 0 0 0 .165.162 3.924 3.924 0 0 0 3.75-3.927v-1.31c0-2.534-2.045-4.587-4.567-4.587z"/></g></svg>
